Resources/NodeIcons/Icon_Hourglass.svg

<?xml version="1.0" encoding="UTF-8" standalone="no"?>
<svg
   id="glyphicons-basic"
   viewBox="0 0 32 32"
   version="1.1"
   sodipodi:docname="Icon_Hourglass.svg"
   inkscape:version="1.4 (86a8ad7, 2024-10-11)"
   xmlns:inkscape="http://www.inkscape.org/namespaces/inkscape"
   xmlns:sodipodi="http://sodipodi.sourceforge.net/DTD/sodipodi-0.dtd"
   xmlns="http://www.w3.org/2000/svg"
   xmlns:svg="http://www.w3.org/2000/svg">
  <defs
     id="defs1" />
  <sodipodi:namedview
     id="namedview1"
     pagecolor="#505050"
     bordercolor="#eeeeee"
     borderopacity="1"
     inkscape:showpageshadow="0"
     inkscape:pageopacity="0"
     inkscape:pagecheckerboard="0"
     inkscape:deskcolor="#505050"
     inkscape:zoom="29.59375"
     inkscape:cx="-5.6937698"
     inkscape:cy="11.488912"
     inkscape:window-width="5120"
     inkscape:window-height="2089"
     inkscape:window-x="1192"
     inkscape:window-y="-8"
     inkscape:window-maximized="1"
     inkscape:current-layer="glyphicons-basic" />
  <circle
     style="fill:#ffffff;stroke-width:15.1181;stroke-opacity:0.495627;paint-order:stroke markers fill;fill-opacity:0.25"
     id="path1"
     cx="16"
     cy="16"
     r="16" />
  <g
     id="g1"
     transform="matrix(0.66753767,0,0,0.66753767,5.3193971,5.3193973)">
    <path
       id="path6"
       style="display:inline;fill:#ffffff;fill-opacity:1;stroke-width:1.33333"
       d="M 6.6660156,0 C 5.9296022,0 5.3339844,0.79549033 5.3339844,1.7773438 v 1.7773437 c 0,0.9818266 0.5956178,1.7792969 1.3320312,1.7792969 v 3.4101562 c -0.00379,1.6207984 0.7339472,3.1545264 2.0019532,4.1640624 L 12.53125,16 8.6679688,19.091797 c -1.2680242,1.00955 -2.0057682,2.543241 -2.0019532,4.164062 v 3.410157 c -0.7364134,0 -1.3320312,0.797445 -1.3320312,1.779296 v 1.777344 C 5.3339844,31.204483 5.9296022,32 6.6660156,32 H 25.333984 c 0.736414,0 1.332032,-0.795517 1.332032,-1.777344 v -1.777344 c 0,-0.981853 -0.595618,-1.779296 -1.332032,-1.779296 v -3.410157 c 0.0038,-1.620821 -0.733929,-3.154512 -2.001953,-4.164062 L 19.46875,16 23.332031,12.908203 c 1.268024,-1.00955 2.005768,-2.543241 2.001953,-4.1640624 V 5.3339844 c 0.736414,0 1.332032,-0.7974703 1.332032,-1.7792969 V 1.7773438 C 26.666016,0.79549033 26.070398,0 25.333984,0 Z M 9.3339844,5.3339844 H 22.666016 v 3.4101562 c 0.0021,0.8102333 -0.365512,1.5781384 -1,2.0820314 l -3.863282,3.089844 c -1.336264,1.067224 -1.335597,3.09991 0,4.167968 l 3.863282,3.089844 c 0.634488,0.503893 1.002076,1.271798 1,2.082031 v 3.410157 H 20.283203 11.716797 9.3339844 v -3.410157 c -0.00208,-0.810233 0.365513,-1.578138 0.9999996,-2.082031 l 3.863282,-3.089844 c 1.336264,-1.067224 1.335597,-3.09991 0,-4.167968 L 10.333984,10.826172 C 9.6994973,10.322279 9.3319078,9.5543738 9.3339844,8.7441406 Z" />
    <path
       id="path1-2"
       style="display:inline;fill:#ffffff;fill-opacity:0.5;stroke-width:1.33333"
       inkscape:label="blank"
       d="m 46.503024,8.5861968 c 0.100575,0.113074 0.207695,0.220763 0.328125,0.316406 l 3.863282,3.0898442 c 0.672826,0.538049 1.007263,1.320988 1.001953,2.101562 h 0.002 V 20.3694 l -4.375,4.373047 h 0.890625 8.566406 0.890625 l -4.375,-4.373047 v -6.275391 h 0.002 c -0.0049,-0.780616 0.328757,-1.563906 1.001953,-2.101562 l 3.863282,-3.0898442 c 0.12043,-0.09564 0.227549,-0.203332 0.328125,-0.316406 z" />
  </g>
</svg>

<?xml version="1.0" encoding="UTF-8" standalone="no"?>
<svg
   id="glyphicons-basic"
   viewBox="0 0 32 32"
   version="1.1"
   sodipodi:docname="Hourglass.svg"
   inkscape:version="1.4 (86a8ad7, 2024-10-11)"
   xmlns:inkscape="http://www.inkscape.org/namespaces/inkscape"
   xmlns:sodipodi="http://sodipodi.sourceforge.net/DTD/sodipodi-0.dtd"
   xmlns="http://www.w3.org/2000/svg"
   xmlns:svg="http://www.w3.org/2000/svg">
  <defs
     id="defs1" />
  <sodipodi:namedview
     id="namedview1"
     pagecolor="#505050"
     bordercolor="#eeeeee"
     borderopacity="1"
     inkscape:showpageshadow="0"
     inkscape:pageopacity="0"
     inkscape:pagecheckerboard="0"
     inkscape:deskcolor="#505050"
     inkscape:zoom="29.59375"
     inkscape:cx="-5.6937698"
     inkscape:cy="11.488912"
     inkscape:window-width="5120"
     inkscape:window-height="2089"
     inkscape:window-x="1192"
     inkscape:window-y="-8"
     inkscape:window-maximized="1"
     inkscape:current-layer="glyphicons-basic" />
  <path
     id="path6"
     style="fill:#ffffff;fill-opacity:1;stroke-width:1.33333"
     d="M 6.6660156 0 C 5.9296022 0 5.3339844 0.79549033 5.3339844 1.7773438 L 5.3339844 3.5546875 C 5.3339844 4.5365141 5.9296022 5.3339844 6.6660156 5.3339844 L 6.6660156 8.7441406 C 6.6622207 10.364939 7.3999628 11.898667 8.6679688 12.908203 L 12.53125 16 L 8.6679688 19.091797 C 7.3999446 20.101347 6.6622006 21.635038 6.6660156 23.255859 L 6.6660156 26.666016 C 5.9296022 26.666016 5.3339844 27.463461 5.3339844 28.445312 L 5.3339844 30.222656 C 5.3339844 31.204483 5.9296022 32 6.6660156 32 L 25.333984 32 C 26.070398 32 26.666016 31.204483 26.666016 30.222656 L 26.666016 28.445312 C 26.666016 27.463459 26.070398 26.666016 25.333984 26.666016 L 25.333984 23.255859 C 25.337799 21.635038 24.600055 20.101347 23.332031 19.091797 L 19.46875 16 L 23.332031 12.908203 C 24.600055 11.898653 25.337799 10.364962 25.333984 8.7441406 L 25.333984 5.3339844 C 26.070398 5.3339844 26.666016 4.5365141 26.666016 3.5546875 L 26.666016 1.7773438 C 26.666016 0.79549033 26.070398 2.9605947e-16 25.333984 0 L 6.6660156 0 z M 9.3339844 5.3339844 L 22.666016 5.3339844 L 22.666016 8.7441406 C 22.668116 9.5543739 22.300504 10.322279 21.666016 10.826172 L 17.802734 13.916016 C 16.46647 14.98324 16.467137 17.015926 17.802734 18.083984 L 21.666016 21.173828 C 22.300504 21.677721 22.668092 22.445626 22.666016 23.255859 L 22.666016 26.666016 L 20.283203 26.666016 L 11.716797 26.666016 L 9.3339844 26.666016 L 9.3339844 23.255859 C 9.3319044 22.445626 9.6994974 21.677721 10.333984 21.173828 L 14.197266 18.083984 C 15.53353 17.01676 15.532863 14.984074 14.197266 13.916016 L 10.333984 10.826172 C 9.6994973 10.322279 9.3319078 9.5543738 9.3339844 8.7441406 L 9.3339844 5.3339844 z " />
  <path
     id="path1-2"
     style="fill:#ffffff;fill-opacity:0.5;stroke-width:1.33333"
     inkscape:label="blank"
     d="m 10.005829,10.509766 c 0.100575,0.113074 0.207695,0.220763 0.328125,0.316406 l 3.863282,3.089844 c 0.672826,0.538049 1.007263,1.320988 1.001953,2.101562 h 0.002 v 6.275391 l -4.375,4.373047 h 0.890625 8.566406 0.890625 l -4.375,-4.373047 v -6.275391 h 0.002 c -0.0049,-0.780616 0.328757,-1.563906 1.001953,-2.101562 l 3.863282,-3.089844 c 0.12043,-0.09564 0.227549,-0.203332 0.328125,-0.316406 z" />
</svg>
